T: Dancing Bear, The
M: 4/4
L: 1/8
K: Emin
The tune is pretty basic. I can't remember Apart chords,  but the B harmonies are Em|Em|A|A|C|C|B7|Em:||
